X:1
T: Mr. James McNicol's Strathspey
C:
R:Strathspey
Q: 128
K:C
M:4/4
L:1/16
|:ed|c3G E3G c3d e3d|c3G E3c D2d2 d2e2|c3G E3G c3d e3c|f3d B3g e2c2 c2ed|
c3G E3G c3d e3d|c3G E3c D2d2 d2e2|c3G E3G c3d e3c|f3d B3g e2c2 c2:|
|:ef|g3c a3c G3c E3a|g3c a3c B2d2 d2f2|g3c a3c G3c E3c|A3F D3g e2c2 c2f2|
g3c a3c G3c E3a|g3c a3c B2d2 d2f2|g3e d3g e3c B3d|c3G E3g e2c2 c2:|
